!!!!SEGMENT: pl-kk--kk-i-6--020_anonim--sub-tuum-praesidium.krn
!!!cenid: 16xx:975
!!!COM: Anonim
!!!COM-rismID: pe30004985
!!!CDT:
!!!CNT:
!!!OTL: Sub tuum praesidium
!!!PDT:
!!!AGN: Sacred
!!!SMS-siglum: PL-Kk
!!!SMS-shelfmark: Kk.I.6
!!!SMS-shelfwork: 020 W
!!!SMS-variant:
!!!SMS-altvar:
!!!NIFC-rismSourceID: 1001135513
!!!NIFC-rismChildID: 1001135805
!!!NIFC-islandoraID: pl-kk:1634
!!!URL-pdf-islandora: https://repozytorium.nifc.pl/islandora/object/pl-kk%3A1634/datastream/PDF/view
!!!URL-scan: https://polish.musicsources.pl/pl/lokalizacje/galeria/rekopisy/6133 @EN{Scan on Polish Music Sources Website} @PL{Skany w portalu Dziedzictwo Muzyki Polskiej w otwartym dostępie}
!!!ONB-nifc: UWAGA: C (skan 0015, s. 26), T (skan 0117-0118, s. 38-40), B (skan 0228-0229, s. 36-38) Następny utwór: Regina caeli
!!!AIN: 1 empty 1 tenor 1 vox
!!!key:
**kern	**text	**kern	**text	**kern	**text
*part3	*part3	*part2	*part2	*part1	*part1
*staff3	*staff3	*staff2	*staff2	*staff1	*staff1
*Iempty	*	*Itenor	*	*Ivox	*
*I"Baſsus.	*	*I"Tenor.	*	*I"Cantus.	*
*I'B	*	*I'T	*	*I'S	*
*clefF4	*	*clefC4	*	*clefC4	*
*k[]	*	*k[]	*	*k[]	*
*G:	*	*G:	*	*G:	*
*M2/1	*	*M2/1	*	*M2/1	*
*met(c|)	*	*met(c|)	*	*met(c|)	*
=1-	=1-	=1-	=1-	=1-	=1-
!LO:TX:a:t=P:problem=inicjał "S" na pięciolinii przed kluczem	!	!LO:TX:a:t=P:problem=inicjał "S" na pięciolinii przed kluczem	!	!LO:TX:a:t=P:problem=inicjał "S" na pięciolinii przed kluczem	!
00r	.	1r	.	1G	Sub
.	.	2G/	Sub	1G	tu-
.	.	2.G/	tu-	.	.
=2-	=2-	=2-	=2-	=2-	=2-
.	.	.	.	1B	-um
.	.	4G/	-um	.	.
.	.	2G/	prae-	.	.
.	.	2E/	-si-	1c	prae-
.	.	2E/	-di-	.	.
=3-	=3-	=3-	=3-	=3-	=3-
1r	.	2D/	-um	1d	-si-
*	*	*2\right	*	*	*
!	!	!LO:TX:t=P:problem=2\middle or right&colon; global	!	!	!
.	.	2d\	Con-	.	.
*2\right	*	*	*	*	*
!LO:TX:t=P:problem=2\middle or right&colon; global	!	!	!	!	!
2G\	Sub	2B\	-fu-	1d	-di-
2.G\	tu-	2G/	-gi-	.	.
=4-	=4-	=4-	=4-	=4-	=4-
*	*	*custos:c	*	*	*
.	.	1d	-mus	1B	-um
4G\	-um	.	.	.	.
2G\	prae-	.	.	.	.
!	!	!LO:PB:g=original	!	!	!
*	*	*	*	*lig	*
2E\	-si-	2r	.	1c	con-
2A\	-di-	2c\	Con-	.	.
=5-	=5-	=5-	=5-	=5-	=5-
*custos:C	*	*	*	*	*
1G	-um	2c\	-fu-	1d	.
.	.	2B\	-gi-	.	.
!LO:PB:g=original	!	!	!	!	!
*	*ij	*	*	*Xlig	*
2C/	Sub	1.c	-mus	1e	.
2.C/	tu-	.	.	.	.
=6-	=6-	=6-	=6-	=6-	=6-
.	.	.	.	1e	-fu-
4C/	-um	.	.	.	.
*	*	*	*ij	*	*
2C/	prae-	2G/	Con-	.	.
*	*	*	*	*custos:d	*
2BB/	-si-	2G/	-fu-	1d	-gi-
!	!	!LO:TX:t=P:problem=♯ below	!	!	!
2D/	-di-	2F#X/	-gi-	.	.
!	!	!	!	!LO:LB:g=original	!
=7-	=7-	=7-	=7-	=7-	=7-
!	!	!LO:TX:t=P:global:problem=rozdzielacz słów	!	!LO:TX:t=P:global:problem=rozdzielacz słów	!
1GG	-um	2G,/	-mus	1d,	-mus
*	*Xij	*	*Xij	*	*
.	.	2.G/	Con-	.	.
2G\	Sub	.	.	1d	San-
.	.	4A/	.	.	.
!	!	!LO:TX:t=P:problem=4\left or middle&colon; global	!	!	!
2.G\	tu-	4B\	-fu-	.	.
.	.	4c\	-gi-	.	.
=8-	=8-	=8-	=8-	=8-	=8-
*	*	*	*	*lig	*
.	.	1B	-mus	1d	-cta
4G\	-um	.	.	.	.
2G\	prae-	.	.	.	.
2E\	-si-	2G/	Sub	1c	.
2C/	-di-	2.G/	tu-	.	.
*	*	*	*	*Xlig	*
=9-	=9-	=9-	=9-	=9-	=9-
!LO:TX:t=P:global:problem=rozdzielacz słów	!	!	!	!	!
*	*	*	*	*lig	*
2GG,/	-um	.	.	1B	.
.	.	4G/	-um	.	.
*	*	*custos:E	*	*	*
2G\	Con-	2G/	prae-	.	.
!	!	!LO:LB:g=original	!	!	!
2G\	-fu-	2E/	-ſi-	1A,	.
*custos:G	*	*	*	*	*
!LO:TX:t=P:problem=♯ below	!	!	!	!	!
2F#X\	-gi-	2A/	-di-	.	.
*	*	*	*	*Xlig	*
!LO:LB:g=original	!	!	!	!	!
=10-	=10-	=10-	=10-	=10-	=10-
1G	-mus	2G/	-um	1B	De-
.	.	2G/	Con-	.	.
1D	Con-	2G/	-fu-	1A,	-i
!	!	!LO:TX:t=P:problem=♯ below	!	!	!
.	.	2F#X/	-gi-	.	.
=11-	=11-	=11-	=11-	=11-	=11-
2.BB/	-fu-	2G/	-mus	1G	ge-
.	.	2.d\	Con-	.	.
4C/	.	.	.	.	.
*	*	*	*	*lig	*
2D/	.	.	.	1F	-ni-
.	.	4c\	.	.	.
2D/	-gi-	4B\	.	.	.
.	.	4A/	.	.	.
=12-	=12-	=12-	=12-	=12-	=12-
1GG	-mus	2B\	.	1G	.
.	.	2c\	.	.	.
*	*	*	*	*Xlig	*
2G\	Sub	2d\	-fu-	1G,	trix
2.G\	tu-	2G/	-gi-	.	.
=13-	=13-	=13-	=13-	=13-	=13-
.	.	1G	-mus	1B	no-
4G\	-um	.	.	.	.
2G\	prae-	.	.	.	.
2E\	-si-	2r	.	1c,	-stras
2A\	-di-	2c\	Con-	.	.
=14-	=14-	=14-	=14-	=14-	=14-
*	*	*	*	*custos:c	*
1G	-um	2c\	-fu-	1d	de-
*	*	*custos:c	*	*	*
.	.	2B\	-gi-	.	.
!	!	!LO:LB:g=original	!	!LO:LB:g=original	!
0r	.	2c\	-mus	1c	-pre-
*	*	*	*ij	*	*
.	.	2A/	Con-	.	.
=15-	=15-	=15-	=15-	=15-	=15-
*	*ij	*	*	*lig	*
.	.	2.G/	-fu-	1d	-ca-
.	.	4G/	-gi-	.	.
2C/	Sub	1C	-mus	1e	.
2.C/	tu-	.	.	.	.
*	*	*	*Xij	*Xlig	*
=16-	=16-	=16-	=16-	=16-	=16-
.	.	2r	.	1e	-ti-
4C/	-um	.	.	.	.
*custos:BB	*	*	*	*	*
2C/	prae-	2G/	Con-	.	.
!LO:LB:g=original	!	!	!	!	!
2BB/	-si-	2G/	-fu-	1d	-o-
!	!	!LO:TX:t=P:problem=♯ below	!	!	!
2D/	-di-	2F#X/	-gi-	.	.
=17-	=17-	=17-	=17-	=17-	=17-
1GG	-um	1G	-mus	1d,	-nes
*	*Xij	*	*ij	*	*
2rBB	.	2C/	Con-	1e,	ne
2C/	Con-	2.G/	-fu-	.	.
=18-	=18-	=18-	=18-	=18-	=18-
2C/	-fu-	.	.	1d	de-
.	.	4F#/	.	.	.
2BB/	-gi-	4E/	.	.	.
.	.	4D/	.	.	.
1C	-mus	2E/	gi-	1c	-ſpi-
.	.	2G/	.	.	.
=19-	=19-	=19-	=19-	=19-	=19-
2.D/	San-	1F#	-mus	1A	-ci-
4C/	-cta	.	.	.	.
*	*	*	*Xij	*lig	*
2BB/	De-	2.G/	San-	1B	-as
2GG/	-i	.	.	.	.
*	*	*custos:E	*	*	*
.	.	4Fny/	-cta	.	.
!	!	!LO:LB:g=original	!	!	!
=20-	=20-	=20-	=20-	=20-	=20-
2C/	ge-	2E/	De-	1c,	.
4BB/	.	2C/	-i	.	.
4AA/	.	.	.	.	.
*	*	*	*	*Xlig	*
2BB/	.	2.G/	ge-	1d,	in
2GG/	-ni-	.	.	.	.
.	.	4F/	.	.	.
=21-	=21-	=21-	=21-	=21-	=21-
*	*	*	*	*lig	*
1AA	-trix	2E/	.	1c	ne-
.	.	2C/	ni-	.	.
1rBB	.	1G	-trix	1B	.
*	*	*	*	*Xlig	*
=22-	=22-	=22-	=22-	=22-	=22-
2.D/	San-	2r	.	1A	.
.	.	1d	No-	.	.
*custos:BB	*	*	*	*	*
4C/	-cta	.	.	.	.
!LO:LB:g=original	!	!	!	!	!
2D/	De-	.	.	1B	-ceſ-
2GG/	-i	2d\	-stras	.	.
=23-	=23-	=23-	=23-	=23-	=23-
*	*	*	*	*custos:G	*
1D	ge-	2.d\	de-	1A	-si-
.	.	4d\	-pre-	.	.
!	!	!	!	!LO:LB:g=original	!
1GG	-ni-	2B\	-ca-	1G	-ta-
.	.	2d\	-ti-	.	.
=24-	=24-	=24-	=24-	=24-	=24-
*	*	*lig	*	*lig	*
1D	-trix	1A	-o-	1F#y	-ti-
*	*	*col	*	*	*
0r	.	2.B\	.	1G	.
*	*	*Xcol	*	*	*
*	*	*Xlig	*	*Xlig	*
.	.	4A/	.	.	.
=25-	=25-	=25-	=25-	=25-	=25-
.	.	4B\	.	1G,	-bus
.	.	4c\	.	.	.
.	.	1d	.	.	.
2r	.	.	.	1A	Sed
*	*	*custos:d	*	*	*
!	!	!LO:TX:t=P:problem=♯ below	!	!	!
1A\	No-	2c#X\	.	.	.
!	!	!LO:LB:g=original	!	!	!
=26-	=26-	=26-	=26-	=26-	=26-
.	.	2d\	-nes	1F#y	à
2A\	-stras	2.D/	ne	.	.
2.A\	de-	.	.	1A	pe-
.	.	4E/	.	.	.
.	.	4F/	.	.	.
4A\	-pre-	4G/	.	.	.
=27-	=27-	=27-	=27-	=27-	=27-
2Fny\	-ca-	2A/	.	1c	-ri-
2A\	-ti-	2cny\	de-	.	.
1G	-o-	2d\	-ſpi-	1B	-cu-
.	.	2G/	-ci-	.	.
=28-	=28-	=28-	=28-	=28-	=28-
2D/	-nes	2A,/	-as	1A,	-lis
2.A\	ne	1A	No-	.	.
*	*	*	*	*lig	*
.	.	.	.	1c	Cun-
4G\	.	.	.	.	.
4F\	.	2A/	-ſtras	.	.
4E\	.	.	.	.	.
=29-	=29-	=29-	=29-	=29-	=29-
4D/	.	2.A/	de-	1d	.
4C/	.	.	.	.	.
1D	.	.	.	.	.
.	.	4A/	-pre-	.	.
*	*	*	*	*Xlig	*
.	.	2F/	-ca-	1d	-ctus
*custos:E	*	*	*	*	*
2F\	de-	2A/	-ti-	.	.
!LO:LB:g=original	!	!	!	!	!
=30-	=30-	=30-	=30-	=30-	=30-
2E\	-ſpi-	2G/	-o-	1e	li-
2C/	-ci-	2c\	-nes	.	.
*	*	*	*	*custos:B	*
2GG/	-as	2.B\	ne	1d	-be-
1G\	in	.	.	.	.
*	*	*custos:d	*	*	*
.	.	4c\	de-	.	.
!	!	!LO:LB:g=original	!	!LO:LB:g=original	!
=31-	=31-	=31-	=31-	=31-	=31-
*	*	*	*	*lig	*
.	.	2d\	-ſpi-	1B	-ra
2G\	ne-	2d\	-ci-	.	.
4A\	-ceſ-	1A	-as	1c,	.
4B\	-si-	.	.	.	.
1c\	-ta-	.	.	.	.
*	*	*	*	*Xlig	*
=32-	=32-	=32-	=32-	=32-	=32-
*	*	*	*	*lig	*
.	.	2G/	Sed	1d	nos
2B\	-ti-	4G/	à	.	.
.	.	4F/	pe-	.	.
1c	-bus	2E/	-ri-	1e	.
.	.	4D/	-cu-	.	.
.	.	4C/	-lis	.	.
*	*	*	*	*Xlig	*
=33-	=33-	=33-	=33-	=33-	=33-
2G\	Sed	1G	Cun-	1d	.
4G\	à	.	.	.	.
4F\	pe-	.	.	.	.
*	*	*	*	*lig	*
2E\	-ri-	2C/	-ctis	1c	.
4D/	-cu-	(>2c\	Cun-	.	.
4C/	-lis	.	.	.	.
=34-	=34-	=34-	=34-	=34-	=34-
1G	cun-	1d)	.	1B	.
*	*	*	*	*Xlig	*
*	*	*	*	*lig	*
2C/	.	1c	-ctis	1c	.
2E\	-ctis	.	.	.	.
=35-	=35-	=35-	=35-	=35-	=35-
*custos:F	*	*	*	*	*
1D	.	2A/	Sed	1d	.
.	.	4G/	à	.	.
.	.	4F/	pe-	.	.
!LO:LB:g=original	!	!	!	!	!
*	*	*	*	*Xlig	*
2r	.	2E/	-ri-	1c,	.
2.F\	li-	4D/	-cu-	.	.
*	*	*custos:c	*	*	*
.	.	4C/	-lis	.	.
!	!	!LO:PB:g=original	!	!	!
=36-	=36-	=36-	=36-	=36-	=36-
.	.	1.c	cun-	1A	Sem-
4F\	-be-	.	.	.	.
2F\	-ra	.	.	.	.
2E\	nos	.	.	1G	-per
2.G\	Sem-	2B\	.	.	.
=37-	=37-	=37-	=37-	=37-	=37-
.	.	2A/	-ctis	1A	Vir-
!LO:TX:t=P:problem=♯ below	!	!	!	!	!
4F#X\	-per	.	.	.	.
2F#\	Vir-	2.d\	li-	.	.
1G	-go	.	.	1B	-go
.	.	4d\	-be-	.	.
.	.	2d\	-ra	.	.
=38-	=38-	=38-	=38-	=38-	=38-
2Fny\	glo-	2A/	nos	1c	glo-
2E\	-ri-	2.G/	Sem-	.	.
*	*	*	*	*custos:B-	*
1D	-o-	.	.	1A	-ri-
!	!	!LO:TX:t=P:problem=♯ below	!	!	!
.	.	4F#X/	-per	.	.
.	.	2F#/	Vir-	.	.
!	!	!	!	!LO:LB:g=original	!
=39-	=39-	=39-	=39-	=39-	=39-
1GG	-sa	2G/	-go	1B-X	-o-
.	.	4D/	Sem-	.	.
.	.	4E/	.	.	.
2rBB	.	2F#/	.	1A,	-sa
2.D/	li-	2G/	-per	.	.
=40-	=40-	=40-	=40-	=40-	=40-
.	.	1A	Vir-	1A	et
4D/	-be-	.	.	.	.
*custos:BB	*	*	*	*	*
2D/	-ra	.	.	.	.
!LO:PB:g=original	!	!	!	!	!
2BB/	nos	1G	-go	1B-	Be-
2.G\	Sem-	.	.	.	.
=41-	=41-	=41-	=41-	=41-	=41-
*	*	*custos:G	*	*	*
.	.	1r	.	1A	-ne-
!LO:TX:t=P:problem=♯ below	!	!	!	!	!
4F#X\	-per	.	.	.	.
2F#\	Vir-	.	.	.	.
!	!	!LO:LB:g=original	!	!	!
2G\	-go	2r	.	1G	-di-
2.E\	glo-	2.G/	glo-	.	.
=42-	=42-	=42-	=42-	=42-	=42-
!	!	!	!	!LO:TX:t=P:problem=fermaty bez kropek above/below	!
.	.	.	.	[0Gl;;	-cta.
4D/	-ri-	4Fny/	-ri-	.	.
2C/	-o-	2E/	-o-	.	.
2C/	-sa	2D/	-sa	.	.
2BB/	et	2d\	et	.	.
=43-	=43-	=43-	=43-	=43-	=43-
2C/	Be-	2e\	Be-	0G_	.
2G\	-ne-	1d	-ne-	.	.
1C	-di-	.	.	.	.
.	.	1c\	-di-	.	.
=44-	=44-	=44-	=44-	=44-	=44-
!LO:TX:t=P:problem=fermaty bez kropek above/below	!	!	!	!	!
0GGl;;	-cta.	.	.	0G]	.
.	.	4B\	.	.	.
.	.	4A/	.	.	.
!	!	!LO:TX:t=P:problem=fermaty bez kropek above/below	!	!	!
.	.	1Bl;;	-cta.	.	.
==	==	==	==	==	==
*-	*-	*-	*-	*-	*-
!!!system-decoration: [(s1,s2,s3)]
!!!RDF**kern: > = above
!!!RDF**kern: < = below
!!!RDF**kern: l = terminal long
!!!EED: Mateusz Mrugas
!!!EEV: 2021-03-22
!!!ENC: Andrzej Kubiczek
!!!END: 2021-03-07
!!!YEC: Copyright 2022 Narodowy Instytut Fryderyka Chopina (https://polishscores.org)
!!!YEM: License CC-BY-4.0 (https://creativecommons.org/licenses/by/4.0)
